!!!OTL: Soldaten hab ich lieb (154), S. 336
!!!id: T0323
**kern
*clefG2
*k[f#]
*G:
{8d
=1
8.g
16d
8g
8a
=2
4.b}
=3
{8g
=4
8.cc
16b
16b
16a
8g
=5
4a}
4r
=6
{8.b
16a
8g
8b
=7
8b
8g
8a}
=8
{8g
=9
8f#
8a
8a
8f#
=10
8g
8a
8b
8a
=11
4b}
4r
=12
{8.b
16a
8g
8a
=13
8b
8g
8a}
=14
{8g
=15
8f#
8a
8a
8f#
=16
8g
8a
8b
8a
=17
4g}
8r
==
*-
!!!minrhy: 16
!!!meters: 2/4 ]  ZZ[6
!!!cut: Soldaten hab ich lieb (154), S. 336
!!!reg: Luxemburg
!!!trd: Singendes Volk, Esch-Alzette 1937, posth.
!!!rhy1: X_  X_.XX_X_  X__.
!!!rhy2: X_  X_.XXXX_  X__0__
!!!key: T0323  16  G 2/4 ]  ZZ[6
!!!mod: SECHSTONSKALA DUR ?]  AMBITUS[7b
!!!kad: 322321
!!!akz: 13_42_33_-713_33_-711_
!!!fot: 'a__b__c__d__cv_dw_
!!!for: 'a__b__aw_c__aw_cv_
!!!fok: '/__^a_\__/__\__^__
!! PHRAS[VORWIEGEND AUFTAKTIG]
!!!fkt: historische, Kriegs- und Soldatenlieder, Liebeslied
!!!bem1: Lullingen hhh Franz Feyder, um 1900,
!!!bem2: mitgeteilt: hhh Heinrich Godefroid (Lehrer)
!! THILL, Mathias:
!! PR[27] 2K[0] 2G[8] 3K[6] 3G[2] 4A[2] 4Ü[0] 5A[2] 6K[0] 6G[6]
!! 7K[2] 7G[0] 8A[0] MEHR[0] SI[27] ABS[52] SR[8] SP[19]
!! ST[12] 2k[8] 2g[31] 3k[2] 3g[0] 4d[0] 4ü[0] 5d[2] 6k[0] 6g[2]
!! 7k[2] 7g[0] 8d[0] mehr[0] si[46] dm[-19] sr[38] sp[8]
!! 1F[4] 2F[69] 3F[20] 4F[0] LF[0] 2P[0] 3P[7] 4P[0] TRI[0] DF[4] AB[54]
!! TF[0] U3K[0] U3[0] U4[0] U4Ü[0] U5[21] U6K[0] U6[0] U7K[0] U7[2]
!! N1[9] N2K[0] N2[15] N3K[0] N3[17] N4[15] N4Ü[0] N5[13] N6K[0] N6[8]
!!!n7k: 0] N7[0] O1[0] O2K[0] O2[0] O3K[0] O3[0] HÖ[0
